!!!COM: Balsamino, Simone
!!!CDT:
!!!PTL: Novellette a sei voci
!!!PPP: Venice
!!!PPR: Amadino
!!!PDT: 1594
!!!PUB-format:
!!!RISM: B 785
!!!OTL: Picciola è l'ape e fa col picciol morso
!!!AGN: Madrigal
!!!SCT: Tam2010724a
!!!SCA: Tam2010724a
!!!original-voices: 6
!!!extant-voices: 6
!!!complete: Y
!!!final: G
**recip	**kern	**text	**kern	**text	**kern	**text	**kern	**text	**kern	**text	**kern	**text
*	*part6	*part6	*part5	*part5	*part4	*part4	*part3	*part3	*part2	*part2	*part1	*part1
*	*staff6	*staff6	*staff5	*staff5	*staff4	*staff4	*staff3	*staff3	*staff2	*staff2	*staff1	*staff1
*	*I"Basso	*	*I"Quinto	*	*I"Tenore	*	*I"Alto	*	*I"Sesto	*	*I"Canto	*
*	*I'B	*	*I'V	*	*I'T	*	*I'A	*	*I'VI	*	*I'C	*
*	*oclefC4	*	*oclefC3	*	*oclefC3	*	*oclefC2	*	*oclefG2	*	*oclefG2	*
*	*clefF4	*	*clefGv2	*	*clefG2	*	*clefG2	*	*clefG2	*	*clefG2	*
*	*k[]	*	*k[]	*	*k[]	*	*k[]	*	*k[]	*	*k[]	*
!!!ONB: no meter (mensuration)
!!LO:TX:a:t=Canto da cantarsi senza battuta e pause
2	2G	Pic-	1r	.	2d	Pic-	2g	Pic-	2b	Pic-	1r	.
4	4G	-cio-	.	.	4d	-cio-	4g	-cio-	4b	-cio-	.	.
4	4G	-la è	.	.	4d	-la è	4g	-la è	4b	-la è	.	.
4.	4.D	l'A-	1r	.	4.d	l'A-	4.f#X	l'A-	4.a	l'A-	1r	.
8	8G	-pe, e	.	.	8d	-pe, e	8g	-pe, e	8b	-pe, e	.	.
4.	4.F	fa	.	.	4.f	fa	4.a	fa	4.cc	fa	.	.
8	8F	col	.	.	8c	col	8fnXi	col	8a	col	.	.
=1-	=1-	=1-	=1-	=1-	=1-	=1-	=1-	=1-	=1-	=1-	=1-	=1-
4	4F	pic-	1r	.	4c	pic-	4f	pic-	4a	pic-	1r	.
4	4D	-ciol	.	.	4d	-ciol	4f	-ciol	4a	-ciol	.	.
2	2A	mor-	.	.	2c#X	mor-	2e	mor-	2a	mor-	.	.
2	2A	-so	1r	.	2c#i	-so	2e	-so	2a	-so	1r	.
4	4G	Pur	.	.	4d	Pur	4g	Pur	4b	Pur	.	.
4	2G	gra-	.	.	2d	gra-	2g	gra-	2b	gra-	.	.
4	.	.	1r	.	.	.	.	.	.	.	1r	.
4	4G	-vi e	.	.	4d	-vi e	4g	-vi e	4b	-vi e	.	.
4	4G	pur	.	.	4d	pur	4g	pur	4b	pur	.	.
4	4F	mo-	.	.	4f	mo-	4a	mo-	4cc	mo-	.	.
=2-	=2-	=2-	=2-	=2-	=2-	=2-	=2-	=2-	=2-	=2-	=2-	=2-
2	2A	-le-	1r	.	2e	-le-	2a	-le-	2cc	-le-	1r	.
4	4G	-ste	.	.	4B	-ste	4d	-ste	4dd	-ste	.	.
4	2G	le	.	.	2d	le	2g	le	2dd	le	.	.
4	.	.	1r	.	.	.	.	.	.	.	1r	.
4	4D	fe-	.	.	4f	fe-	4a	fe-	4dd	fe-	.	.
2	2A	-ri-	.	.	2e	-ri-	2a	-ri-	2cc#X	-ri-	.	.
2	2D	-te;	2r	.	2d	-te;	2a	-te;	2dd	-te;	2r	.
4	2r	.	4A	Ma	4e	Ma	4a	Ma	2r	.	4cc#X	Ma
4	.	.	4d	qual	4f	qual	4a	qual	.	.	4dd	qual
=3-	=3-	=3-	=3-	=3-	=3-	=3-	=3-	=3-	=3-	=3-	=3-	=3-
4	1r	.	4c	co-	4g	co-	4cc	co-	1r	.	4ee	co-
8	.	.	8c	-sa è	8g	-sa è	8cc	-sa è	.	.	8ee	-sa è
8	.	.	8c	più	8g	più	8cc	più	.	.	8ee	più
8	.	.	8c	pic-	8g	pic-	8cc	pic-	.	.	8ee	pic-
8	.	.	8c	-cio-	8g	-cio-	8cc	-cio-	.	.	8ee	-cio-
8	.	.	8c	-la	8g	-la	8cc	-la	.	.	8ee	-la
8	.	.	8c	d'A-	8g	d'A-	8g	d'A-	.	.	8ee	d'A-
4	1r	.	4A	-mo-	4f#X	-mo-	4a	-mo-	1r	.	4cc#X	-mo-
4	.	.	4c	-re,	4g	-re,	4g	-re,	.	.	4ee	-re,
4	.	.	4r	.	4r	.	4r	.	.	.	4r	.
4	.	.	4G	Se in	4g	Se in	4g	Se in	.	.	4b	Se in
4.	1r	.	4.G	o-	4.d	o-	4.g	o-	1r	.	4.b	o-
8	.	.	8G	-gni	8d	-gni	8g	-gni	.	.	8b	-gni
4.	.	.	4.G	bre-	4.d	bre-	4.g	bre-	.	.	4.b	bre-
8	.	.	8G	-ve	8d	-ve	8g	-ve	.	.	8b	-ve
=4-	=4-	=4-	=4-	=4-	=4-	=4-	=4-	=4-	=4-	=4-	=4-	=4-
4	1r	.	4G	spa-	4d	spa-	4g	spa-	1r	.	4b	spa-
2	.	.	2c	-zio en-	2e	-zio en-	2g	-zio en-	.	.	2ccny	-zio en-
4	.	.	4c	-tra,	4e	-tra,	4g	-tra,	.	.	4cc	-tra,
4	1r	.	4r	.	4r	.	4r	.	1r	.	4r	.
8	.	.	8G	e	8d	e	8g	e	.	.	8b	e
8	.	.	8A	s'a-	8cny	s'a-	8e	s'a-	.	.	8cc	s'a-
4	.	.	4G	-scon-	4B	-scon-	4g	-scon-	.	.	4dd	-scon-
4	.	.	4G	-de In	4d	-de In	4g	-de In	.	.	4b	-de In
4	1r	.	4c	o-	4e	o-	4g	o-	1r	.	4cc	o-
4	.	.	4c	-gni	4e	-gni	4g	-gni	.	.	4cc	-gni
4	.	.	4A	bre-	4e	bre-	4a	bre-	.	.	4cc	bre-
4	.	.	4A	-ve	4e	-ve	4a	-ve	.	.	4cc	-ve
=5-	=5-	=5-	=5-	=5-	=5-	=5-	=5-	=5-	=5-	=5-	=5-	=5-
2	2r	.	2e	spa-	2e	spa-	2g#X	spa-	1r	.	2b	spa-
2	2r	.	2A	-zio?	2c#i	-zio?	2a	-zio?	.	.	2a	-zio?
2	2E	Or	2r	.	2B	Or	1r	.	2g#X	Or	1r	.
4	4E	sot-	1r	.	4B	sot-	.	.	4g#i	sot-	.	.
4	4E	-to a	.	.	4c#i	-to a	.	.	4g#i	-to a	.	.
4	4F	l'om-	.	.	4c#i	l'om-	1r	.	4a	l'om-	1r	.
8	8F	-bra	.	.	8c#i	-bra	.	.	8a	-bra	.	.
8	8F	de	.	.	8d	de	.	.	8a	de	.	.
4	4G	le	1r	.	4e	le	.	.	4b	le	.	.
4	4G	pal-	.	.	4e	pal-	.	.	4b	pal-	.	.
2	2A	-pe-	.	.	2e	-pe-	2r	.	2cci	-pe-	2r	.
=6-	=6-	=6-	=6-	=6-	=6-	=6-	=6-	=6-	=6-	=6-	=6-	=6-
2	2A	-bre,	2r	.	2e	-bre,	2r	.	2cc	-bre,	2r	.
2	2r	.	2A	Or	2r	.	2e	Or	2r	.	2cc	Or
4	1r	.	4A	tra'	1r	.	4e	tra'	1r	.	4cc	tra'
4	.	.	4A	mi-	.	.	4f	mi-	.	.	4cc	mi-
4	.	.	4B	-nu-	.	.	4f#X	-nu-	.	.	4dd	-nu-
4	.	.	4B	-ti	.	.	4gny	-ti	.	.	4dd	-ti
4	1r	.	4c	ri-	1r	.	4g	ri-	1r	.	4ee	ri-
8	.	.	8c	-vi	.	.	8g	-vi	.	.	8ee	-vi
8	.	.	8c	D'un	.	.	8a	D'un	.	.	8ee	D'un
4	.	.	4d	bion-	.	.	4a	bion-	.	.	4dd	bion-
4	.	.	4d	-do	.	.	4a	-do	.	.	4b	-do
=7-	=7-	=7-	=7-	=7-	=7-	=7-	=7-	=7-	=7-	=7-	=7-	=7-
2	1r	.	2e	cri-	1r	.	2g#X	cri-	1r	.	2b	cri-
2	.	.	2e	-ne,	.	.	2g#X	-ne,	.	.	2b	-ne,
2	2E	Or	1r	.	2B	Or	1r	.	2g#X	Or	1r	.
4	4F	den-	.	.	4A	den-	.	.	4a	den-	.	.
4	4F	-tro	.	.	4d	-tro	.	.	4a	-tro	.	.
4	4G	le	1r	.	4d	le	1r	.	4b	le	1r	.
4	4G	poz-	.	.	4e	poz-	.	.	4b	poz-	.	.
2	2A	-zet-	.	.	2e	-zet-	.	.	2cc#X	-zet-	.	.
=8-	=8-	=8-	=8-	=8-	=8-	=8-	=8-	=8-	=8-	=8-	=8-	=8-
4.	4.A	-te	1r	.	4.e	-te	1r	.	4.cc#X	-te	1r	.
8	8A	Che	.	.	8f#i	Che	.	.	8cc#i	Che	.	.
4	4B	for-	.	.	4f#X	for-	.	.	4dd	for-	.	.
4	4B	-ma un	.	.	4g	-ma un	.	.	4dd	-ma un	.	.
4	4c	dol-	1r	.	4g	dol-	1r	.	4ee	dol-	1r	.
4	4c	-ce	.	.	4g	-ce	.	.	4ee	-ce	.	.
8	8cL	ri-	.	.	4.g	ri-	.	.	8eeL	ri-	.	.
8	8B	.	.	.	.	.	.	.	8dd	.	.	.
8	8c	.	.	.	.	.	.	.	8ee	.	.	.
8	8dJ	.	.	.	8fnXi	.	.	.	8ffJ	.	.	.
4.	4.c	.	1r	.	4.g	.	1r	.	4.ee	.	1r	.
8	8G	-so in	.	.	8g	-so in	.	.	8b	-so in	.	.
4	4F	bel-	.	.	4a	bel-	.	.	4ccnXi	bel-	.	.
4	4D	-la	.	.	4f	-la	.	.	4dd	-la	.	.
=9-	=9-	=9-	=9-	=9-	=9-	=9-	=9-	=9-	=9-	=9-	=9-	=9-
2	2A	guan-	1r	.	2e	guan-	1r	.	2cc	guan-	1r	.
2	2D	-cia;	.	.	2f	-cia;	.	.	2dd	-cia;	.	.
1	1c	E	1c	E	1e	E	1cc	E	1ee	E	1gg	E
4	4F	pur	4c	pur	4f	pur	4a	pur	4cc	pur	4ff	pur
4	4F	fa	4c	fa	4f	fa	4a	fa	4cc	fa	4ff	fa
4	4F	tan-	4c	tan-	4.f	tan-	4.a	tan-	4cc	tan-	4.ff	tan-
8	4F	-to	4c	-to	.	.	.	.	4cc	-to	.	.
8	.	.	.	.	8f	-to	8a	-to	.	.	8ff	-to
=10-	=10-	=10-	=10-	=10-	=10-	=10-	=10-	=10-	=10-	=10-	=10-	=10-
4.	4.F	gran-	4.c	gran-	4.f	gran-	4.a	gran-	4.cc	gran-	4.ff	gran-
8	8F	-di e	8c	-di e	8f	-di e	8a	-di e	8cc	-di e	8ff	-di e
4	4F	sì	4A	sì	4f	sì	4a	sì	4cc	sì	4ff	sì
4	4D	mor-	4A	mor-	4a	mor-	4a	mor-	4dd	mor-	4ff	mor-
2	2A	-ta-	2A	-ta-	2e	-ta-	2a	-ta-	2cc#X	-ta-	2ee	-ta-
2	2A	-li	2A	-li	2e	-li	2a	-li	2cc#i	-li	2ee	-li
4	4r	.	4r	.	4r	.	4r	.	4r	.	4r	.
4	4G	E	4d	E	4g	E	4b	E	4dd	E	4gg	E
4	4G	co-	4d	co-	4g	co-	4b	co-	4dd	co-	4gg	co-
4	4G	-sì im-	4d	-sì im-	4g	-sì im-	4b	-sì im-	4dd	-sì im-	4gg	-sì im-
=11-	=11-	=11-	=11-	=11-	=11-	=11-	=11-	=11-	=11-	=11-	=11-	=11-
4	4G	-me-	4d	-me-	4g	-me-	4b	-me-	4dd	-me-	4gg	-me-
4	4G	-di-	4d	-di-	4g	-di-	4b	-di-	4dd	-di-	4gg	-di-
2.	2.G	-ca-	2.d	-ca-	2.g	-ca-	2.b	-ca-	2.dd	-ca-	2.gg	-ca-
4	4G	-bi-	4d	-bi-	4d	-bi-	4b	-bi-	4b	-bi-	4gg	-bi-
4	4F	-li	4A	-li	4f	-li	4a	-li	4cci	-li	4aa	-li
4	4D	le	4A	le	4f	le	4a	le	4dd	le	4ff	le
1	1A	pia-	1A	pia-	1e	pia-	1a	pia-	1cc#X	pia-	1ee	pia-
=12-	=12-	=12-	=12-	=12-	=12-	=12-	=12-	=12-	=12-	=12-	=12-	=12-
2	2D	-ghe.	2A	-ghe.	1f	-ghe.	1a	-ghe.	1dd	-ghe.	1dd	-ghe.
2	2r	.	2r	.	.	.	.	.	.	.	.	.
1	1r	.	1c	Ohi-	1r	.	1gi	Ohi-	1ee	Ohi-	1gg	Ohi-
4	1r	.	4A	-mè,	1r	.	4a	-mè,	4cci	-mè,	4ff	-mè,
4	.	.	4A	che	.	.	4a	che	4cc	che	4ee	che
4	.	.	4A	tut-	.	.	4a	tut-	4cc	tut-	4ee	tut-
4	.	.	4A	-te	.	.	4a	-te	4cc	-te	4ee	-te
=13-	=13-	=13-	=13-	=13-	=13-	=13-	=13-	=13-	=13-	=13-	=13-	=13-
2.	1r	.	2.A	pia-	1r	.	2.a	pia-	2.cc#X	pia-	2.ee	pia-
4	.	.	4A	-ga e	.	.	4a	-ga e	4cc#i	-ga e	4ee	-ga e
4	1r	.	4G	tut-	1r	.	4b	tut-	4dd	tut-	4gg	tut-
4	.	.	4G	-to	.	.	4g	-to	4b	-to	4dd	-to
2	.	.	2d	san-	.	.	2f#X	san-	2a	san-	2dd	san-
2	1r	.	2d	-gue	1r	.	2f#i	-gue	2a	-gue	2dd	-gue
4	.	.	4c	Son	.	.	4g	Son	4ccnXi	Son	4ee	Son
4	.	.	4c	le	.	.	4g	le	4cc	le	4ee	le
=14-	=14-	=14-	=14-	=14-	=14-	=14-	=14-	=14-	=14-	=14-	=14-	=14-
4.	1r	.	4.c	vi-	1r	.	4.g	vi-	4.cc	vi-	4.ee	vi-
8	.	.	8c	-sce-	.	.	8g	-sce-	8cc	-sce-	8ee	-sce-
2	.	.	2G	-re	.	.	2g	-re	2b	-re	2dd	-re
2	1r	.	2A	mi-	1r	.	2e	mi-	2a	mi-	2cc#X	mi-
2	.	.	2A	-e;	.	.	2e	-e;	2a	-e;	2cc#X	-e;
2	2A	E	2c#X	E	2a	E	1r	.	2ee	E	1r	.
4	4d	mil-	4d	mil-	4a	mil-	.	.	4ff	mil-	.	.
4	4G	-le	4B	-le	4g	-le	.	.	4ee	-le	.	.
=15-	=15-	=15-	=15-	=15-	=15-	=15-	=15-	=15-	=15-	=15-	=15-	=15-
2	2G	spie-	2B	spie-	2g	spie-	1r	.	2dd	spie-	1r	.
4	4G	-di	4B	-di	4d	-di	.	.	4ee	-di	.	.
4	4.A	Ha	4.e	Ha	4.a	Ha	.	.	4.cc	Ha	.	.
8	.	.	.	.	.	.	1r	.	.	.	1r	.
8	8A	ne-	8e	ne	8a	ne-	.	.	8cc	ne-	.	.
4	4A	-gli oc-	4e	gli oc-	4a	-gli oc-	.	.	4cc	-gli oc-	.	.
4	4G	-chi	4B	-chi	4d	-chi	.	.	4b	-chi	.	.
4	4D	di	4d	di	4f	di	.	.	4a	di	.	.
2	2A	Sil-	2e	Sil-	2e	Sil-	1r	.	2cc	Sil-	1r	.
2	2d	-via il	2d	-via	2f#X	-via il	.	.	2dd	-via il	.	.
=16-	=16-	=16-	=16-	=16-	=16-	=16-	=16-	=16-	=16-	=16-	=16-	=16-
4	4c	cru-	1r	.	4g	cru-	1r	.	4ee	cru-	1r	.
4	4c	-do A-	.	.	4e	-do A-	.	.	4ee	-do A-	.	.
2	2B	-mo-	.	.	2f#X	-mo-	.	.	2dd#X	-mo-	.	.
2	2B	-re,	2r	.	2f#X	-re,	2r	.	2dd#i	-re,	2r	.
2	2r	.	2d	Cru-	2r	.	2a	Cru-	2r	.	2ff	Cru-
4	1r	.	4ci	-de-	1r	.	4a	-de-	1r	.	4ee	-de-
4	.	.	4c	-le A-	.	.	4e	-le A-	.	.	4ee	-le A-
2	.	.	2B	-mo-	.	.	2f#X	-mo-	.	.	2dd	-mo-
=17-	=17-	=17-	=17-	=17-	=17-	=17-	=17-	=17-	=17-	=17-	=17-	=17-
2	2r	.	2B	-re,	2r	.	2f#i	-re,	2r	.	2dd	-re,
2	2d	Sil-	2r	.	2a	Sil-	2r	.	2ff	Sil-	2r	.
4	4c	-via	1r	.	4a	-via	1r	.	4ee	-via	1r	.
4	4c	cru-	.	.	4e	cru-	.	.	4ee	cru-	.	.
2	2.B	-de-	.	.	2.f#X	-de-	.	.	2.ddi	-de-	.	.
4	.	.	1r	.	.	.	1r	.	.	.	1r	.
4	4A	-le ed	.	.	4f#i	-le ed	.	.	4cc#X	-le ed	.	.
2	2B	em-	.	.	2f#i	em-	.	.	2dd	em-	.	.
=18-	=18-	=18-	=18-	=18-	=18-	=18-	=18-	=18-	=18-	=18-	=18-	=18-
4	4A	-pia	1r	.	4f#i	-pia	1r	.	4cc#i	-pia	1r	.
4	4G	Più	.	.	4g	Più	.	.	4dd	Più	.	.
4	4G	che	.	.	4d	che	.	.	4b	che	.	.
4	4D	le	.	.	4fni	le	.	.	4dd	le	.	.
2	2A	sel-	1r	.	2e	sel-	1r	.	2cc#i	sel-	1r	.
2	2D	-ve!	.	.	2d	-ve!	.	.	2dd	-ve!	.	.
1	1c	Oh	1c	Oh	1e	Oh	1cc	Oh	1ee	Oh	1gg	Oh
=19-	=19-	=19-	=19-	=19-	=19-	=19-	=19-	=19-	=19-	=19-	=19-	=19-
4	4F	co-	4c	co-	4f	co-	4a	co-	4cci	co-	4ff	co-
4	4F	-me a	4c	-me a	4f	-me a	4a	-me a	4cc	-me a	4ff	-me a
4	4F	te	4c	te	4f	te	4a	te	4cc	te	4ff	te
4	4F	con-	4c	con-	4f	con-	4a	con-	4cc	con-	4ff	con-
4.	4.F	-fas-	4.c	-fas-	4.f	-fas-	4.a	-fas-	4.cc	-fas-	4.ff	-fas-
8	8C	-si	8c	-si	8g	-si	8g	-si	8cc	-si	8ee	-si
2	2G	Tal	2G	Tal	2d	Tal	2g	Tal	2b	Tal	2dd	Tal
2	2D	no-	2A	no-	2d	no-	2f#X	no-	2a	no-	2dd	no-
2	2G	-me,	2G	-me,	2d	-me,	2g	-me,	2b	-me,	2dd	-me,
=20-	=20-	=20-	=20-	=20-	=20-	=20-	=20-	=20-	=20-	=20-	=20-	=20-
4	4r	.	4r	.	1r	.	4r	.	4r	.	4r	.
4	4D	e	4A	e	.	.	4a	e	4a	e	4dd	e
4	4.A	quan-	4.A	quan-	.	.	4a	quan-	4.cc	quan-	4.ee	quan-
8	.	.	.	.	.	.	4a	-to	.	.	.	.
8	8A	-to	8e	-to	.	.	.	.	8cc	-to	8ee	-to
4.	4.A	vi-	4.e	vi-	1r	.	4.a	vi-	4.cc	vi-	4.ee	vi-
8	8A	-de	8e	-de	.	.	8a	-de	8cc	-de	8ee	-de
4	4A	chi	4e	chi	.	.	4a	chi	4cc	chi	4ee	chi
4	4A	te'l	4A	te'l	.	.	4a	te'l	4cc	te'l	4ee	te'l
2	2D	po-	2A	po-	1r	.	2f#X	po-	2a	po-	2dd	po-
2	2A	-se!	2A	-se!	.	.	2a	-se!	2cc	-se!	2ee	-se!
=21-	=21-	=21-	=21-	=21-	=21-	=21-	=21-	=21-	=21-	=21-	=21-	=21-
1	1r	.	1c	Ce-	1r	.	1g	Ce-	1r	.	1ee	Ce-
4	1r	.	4A	-lan	1r	.	4f	-lan	1r	.	4cci	-lan
4	.	.	4A	le	.	.	4e	le	.	.	4cc	le
2	.	.	2A	sel-	.	.	2e	sel-	.	.	2cc	sel-
4	1r	.	4A	-ve an-	1r	.	4e	-ve an-	1r	.	4cc	-ve an-
8	.	.	8A	-gui,	.	.	8e	-gui,	.	.	8cc	-gui,
8	.	.	8A	le-	.	.	8e	le-	.	.	8cc	le-
4	.	.	4F#X	-o-	.	.	4d	-o-	.	.	4a	-o-
4	.	.	4G	-ni ed	.	.	4B	-ni ed	.	.	4b	-ni ed
=22-	=22-	=22-	=22-	=22-	=22-	=22-	=22-	=22-	=22-	=22-	=22-	=22-
2	1r	.	2A	or-	1r	.	2e	or-	1r	.	2cc	or-
4	.	.	4A	-si	.	.	4e	-si	.	.	4cc	-si
4	.	.	4A	Den-	.	.	4f	Den-	.	.	4cc	Den-
4	1r	.	4B-X	-tro il	1r	.	4f	-tro il	1r	.	4dd	-tro il
4	.	.	4G	lor	.	.	4g	lor	.	.	4dd	lor
2	.	.	2A	ver-	.	.	2e	ver-	.	.	2cc#X	ver-
2	2r	.	2A	-de;	2r	.	2e	-de;	2r	.	2cc#X	-de;
2	1c	e	2r	.	1e	e	2r	.	1gg	e	2r	.
2	.	.	1r	.	.	.	1r	.	.	.	1r	.
4	4A	tu	.	.	4e	tu	.	.	4cc	tu	.	.
4	4A	den-	.	.	4e	den-	.	.	4cc	den-	.	.
=23-	=23-	=23-	=23-	=23-	=23-	=23-	=23-	=23-	=23-	=23-	=23-	=23-
4	4F#X	-tro al	1r	.	4d	-tro al	1r	.	4a	-tro al	1r	.
4	4G	bel	.	.	4B	bel	.	.	4b	bel	.	.
2	2A	pet-	.	.	2e	pet-	.	.	2cc	pet-	.	.
4	4A	-to	1r	.	4e	-to	1r	.	4cc	-to	1r	.
4	4B	Na-	.	.	4g	Na-	.	.	4dd	Na-	.	.
4	4c	-scon-	.	.	4g	-scon-	.	.	4ee	-scon-	.	.
4	2G	-di o-	.	.	2g	-di o-	.	.	2dd	-di o-	.	.
4	.	.	1r	.	.	.	1r	.	.	.	1r	.
4	4G	-dio,	.	.	4g	-dio,	.	.	4dd	-dio,	.	.
4	4r	.	.	.	4r	.	.	.	4r	.	.	.
4	4A	di-	.	.	4e	di-	.	.	4cc#X	di-	.	.
=24-	=24-	=24-	=24-	=24-	=24-	=24-	=24-	=24-	=24-	=24-	=24-	=24-
4	4A	-sde-	1r	.	4e	-sde-	1r	.	4cc#i	-sde-	1r	.
4	4D	-gno, ed	.	.	4f	-gno, ed	.	.	4dd	-gno, ed	.	.
4	4A	im-	.	.	4e	im-	.	.	4cc#i	im-	.	.
4	4A	-pie-	.	.	4A	-pie-	.	.	4cc#i	-pie-	.	.
2	2E	-ta-	1r	.	2G#X	-ta-	1r	.	2b	-ta-	1r	.
2	2A	-te,	.	.	2A	-te,	.	.	2a	-te,	.	.
4	4r	.	4r	.	4r	.	4r	.	4r	.	4r	.
4.	4.G	Fe-	4.d	Fe-	4.g	Fe-	4.b	Fe-	4.dd	Fe-	4.gg	Fe-
8	8G	-re	8d	-re	8g	-re	8b	-re	8dd	-re	8gg	-re
4	4G	peg-	4d	peg-	4g	peg-	4b	peg-	4dd	peg-	4gg	peg-
=25-	=25-	=25-	=25-	=25-	=25-	=25-	=25-	=25-	=25-	=25-	=25-	=25-
2	2G	-gior	2d	-gior	2g	-gior	2b	-gior	2dd	-gior	2gg	-gior
2	2C	ch'an-	2c	ch'an-	2g	ch'an-	2cc	ch'an-	2ee	ch'an-	2gg	ch'an-
4	4Fi	-gui,	4c	-gui,	4f	-gui,	4cc	-gui,	4ff	-gui,	4aa	-gui,
4	4F	le-	4c	le-	4f	le-	4cc	le-	4ff	le-	4aa	le-
4	4C	-o-	4c	-o-	4g	-o-	4cc	-o-	4ee	-o-	4gg	-o-
4	4C	-ni ed	4c	-ni ed	4g	-ni ed	4cc	-ni ed	4ee	-ni ed	4gg	-ni ed
2	2G	or-	2d	or-	2g	or-	2b	or-	2dd	or-	2gg	or-
2	2C	-si	2e	-si	2g	-si	2cc	-si	2cci	-si	2ee	-si
=26-	=26-	=26-	=26-	=26-	=26-	=26-	=26-	=26-	=26-	=26-	=26-	=26-
1	1.E	Ché	1r	.	1.e	Ché	1r	.	1.g#X	Ché	1.b	Ché
2	.	.	1r	.	.	.	1r	.	.	.	.	.
2	2F	si	.	.	2ci	si	.	.	2a	si	2a	si
1	1.G	pla-	1r	.	1.g	pla-	1r	.	1.b	pla-	1.dd	pla-
2	.	.	1r	.	.	.	1r	.	.	.	.	.
4	4D	-ca-	.	.	4f#X	-ca-	.	.	4a	-ca-	4dd	-ca-
4	4D	-no	.	.	4f#X	-no	.	.	4a	-no	4dd	-no
=27-	=27-	=27-	=27-	=27-	=27-	=27-	=27-	=27-	=27-	=27-	=27-	=27-
2	2D	quei,	2r	.	2f#i	quei,	2r	.	2a	quei,	2a	quei,
4	4r	.	4r	.	4r	.	4r	.	4r	.	4r	.
4	4B-X	que-	4f	que-	4d	que-	4b-X	que-	4dd	que-	4dd	que-
4	4B-i	-sti	4f	-sti	4d	-sti	4b-i	-sti	4ff	-sti	4dd	-sti
4	4B-i	pla-	4f	pla-	4d	pla-	4b-i	pla-	4ff	pla-	4dd	pla-
2	2B-i	-car-	2f	-car-	2d	-car-	2b-i	-car-	2ff	-car-	2dd	-car-
4	4B-i	-si	4f	-si	4d	-si	4b-i	-si	4ff	-si	4dd	-si
4	4F	Non	4f	Non	4fnXi	Non	4a	Non	4ff	Non	4cci	Non
4.	4.B-i	pos-	4.f	pos-	4.d	pos-	4.b-i	pos-	4.ff	pos-	4.dd	pos-
8	8B-i	-so-	8f	-so-	8d	-so-	8b-i	-so-	8ff	-so-	8dd	-so-
=28-	=28-	=28-	=28-	=28-	=28-	=28-	=28-	=28-	=28-	=28-	=28-	=28-
4	4B-i	-no	4f	-no	4d	-no	4b-i	-no	4ff	-no	4dd	-no
4	4F	per	4f	per	4A	per	4a	per	4ff	per	4cc	per
2	2c	pre-	2g	pre-	2e	pre-	2g	pre-	2ee	pre-	2cc	pre-
4	4c	-go	4e	-go	4e	-go	4g	-go	4ee	-go	4cc	-go
2	2c	né	2e	né	2e	né	2g	né	2ee	né	2cc	né
4	4d	per	4f	per	4d	per	4f	per	4dd	per	4a	per
1	1A	do-	1e	do-	1e	do-	1a	do-	1cc	do-	1a	do-
=29-	=29-	=29-	=29-	=29-	=29-	=29-	=29-	=29-	=29-	=29-	=29-	=29-
2	1D	-no.	1d	-no.	2f	-no.	2a	-no.	1dd	-no.	1a	-no.
2	.	.	.	.	2r	.	2r	.	.	.	.	.
2	1c	Ohi-	2r	.	1g	Ohi-	1r	.	1ee	Ohi-	2r	.
2	.	.	2.r	.	.	.	.	.	.	.	2.r	.
4	4A	-mè,	.	.	4f	-mè,	1r	.	4cc#X	-mè,	.	.
4	4A	quan-	2.r	.	4e	quan-	.	.	4cc#i	quan-	2.r	.
4	4A	-do	.	.	4e	-do	.	.	4cc#X	-do	.	.
4	4A	ti	.	.	4e	ti	.	.	4cc#i	ti	.	.
4.	4.A	por-	2.r	.	4.e	por-	1r	.	4.cc#i	por-	2.r	.
8	8A	-to i	.	.	8e	-to i	.	.	8cc#i	-to i	.	.
4	4F#X	fior	.	.	4d	fior	.	.	4a	fior	.	.
4	4G	no-	2.r	.	4B	no-	.	.	4b	no-	2.r	.
2	2A	-vel-	.	.	2e	-vel-	1r	.	2cc#X	-vel-	.	.
2	2A	-li,	2.r	.	2e	-li,	.	.	2cc#i	-li,	2.r	.
4	4r	.	.	.	4r	.	4r	.	4r	.	.	.
=30-	=30-	=30-	=30-	=30-	=30-	=30-	=30-	=30-	=30-	=30-	=30-	=30-
4	4A	Tu	1r	.	4c	Tu	1r	.	4ee	Tu	1r	.
4	4Bi	li	.	.	4g	li	.	.	4dd	li	.	.
4	4c	ri-	.	.	4g	ri-	.	.	4ee	ri-	.	.
4	2d	-cu-	.	.	2a	-cu-	.	.	2ff	-cu-	.	.
4	.	.	1r	.	.	.	1r	.	.	.	1r	.
4	4c	-si,	.	.	4g	-si,	.	.	4ee	-si,	.	.
2	2c	ri-	.	.	2g	ri-	.	.	2ee	ri-	.	.
4	4c	-tro-	1r	.	4g	-tro-	1r	.	4ee	-tro-	1r	.
4	4A	-set-	.	.	4f#X	-set-	.	.	4cc#X	-set-	.	.
4	4c	-ta,	.	.	4g	-ta,	.	.	4ee	-ta,	.	.
4	2r	.	.	.	2r	.	.	.	2r	.	.	.
4	.	.	1r	.	.	.	1r	.	.	.	1r	.
2	2d	for-	.	.	2f#i	for-	.	.	2dd	for-	.	.
4	4G	-se	.	.	4d	-se	.	.	4b	-se	.	.
4	4G	Per-	1r	.	4d	Per-	1r	.	4b	Per-	1r	.
2	2G	-ché	.	.	2d	-ché	.	.	2b	-ché	.	.
4	4G	fior	.	.	4d	fior	.	.	4b	fior	.	.
=31-	=31-	=31-	=31-	=31-	=31-	=31-	=31-	=31-	=31-	=31-	=31-	=31-
4	4G	via	1r	.	4d	via	1r	.	4b	via	1r	.
4	4G	più	.	.	4d	più	.	.	4b	più	.	.
2	2G	bel-	.	.	2d	bel-	.	.	2b	bel-	.	.
4	4G	-li hai	1r	.	4d	-li hai	1r	.	4b	-li hai	1r	.
4	4Fi	nel	.	.	4A	nel	.	.	4cci	nel	.	.
4	4D	bel	.	.	4fi	bel	.	.	4dd	bel	.	.
4	2A	vol-	.	.	2e	vol-	.	.	2cc#X	vol-	.	.
4	.	.	2.r	.	.	.	2.r	.	.	.	2.r	.
2	2D	-to.	.	.	2d	-to.	.	.	2dd	-to.	.	.
4	4r	.	1c	Ohi-	4r	.	1g	Ohi-	4r	.	1ee	Ohi-
2.	1r	.	.	.	1r	.	.	.	1r	.	.	.
4	.	.	4A	-mè,	.	.	4f	-mè,	.	.	4cc#X	-mè,
=32-	=32-	=32-	=32-	=32-	=32-	=32-	=32-	=32-	=32-	=32-	=32-	=32-
4	1r	.	4A	quan-	1r	.	4e	quan-	1r	.	4cc#i	quan-
4	.	.	4A	-do io	.	.	4e	-do io	.	.	4cc#i	-do io
4	.	.	4A	ti	.	.	4e	ti	.	.	4cc#i	ti
4	.	.	4.A	por-	.	.	4.e	por-	.	.	4.cc#i	por-
8	1r	.	.	.	1r	.	.	.	1r	.	.	.
8	.	.	8A	-go i	.	.	8e	-go i	.	.	8cc#i	-go i
4	.	.	4F#X	va-	.	.	4d	va-	.	.	4a	va-
4	.	.	4G	-ghi	.	.	4B	-ghi	.	.	4b	-ghi
4	.	.	2A	po-	.	.	2e	po-	.	.	2cc#X	po-
4	1r	.	.	.	1r	.	.	.	1r	.	.	.
2	.	.	2A	-mi,	.	.	2e	-mi,	.	.	2cc#X	-mi,
4	.	.	4r	.	.	.	4r	.	.	.	4r	.
4	1r	.	4A	Tu	1r	.	4c	Tu	1r	.	4ee	Tu
4	.	.	4Bi	li	.	.	4g	li	.	.	4dd	li
4	.	.	4c	ri-	.	.	4g	ri-	.	.	4ee	ri-
4	.	.	2d	-giu-	.	.	2a	-giu-	.	.	2ff	-giu-
4	1r	.	.	.	1r	.	.	.	1r	.	.	.
4	.	.	4c	-ti,	.	.	4a	-ti,	.	.	4ee	-ti,
2	.	.	2c	di-	.	.	2g	di-	.	.	2ee	di-
=33-	=33-	=33-	=33-	=33-	=33-	=33-	=33-	=33-	=33-	=33-	=33-	=33-
4	1r	.	4c	-sde-	1r	.	4g	-sde-	1r	.	4ee	-sde-
4	.	.	4A	-gno-	.	.	4f#X	-gno-	.	.	4cc#X	-gno-
4	.	.	4c	-sa,	.	.	4g	-sa,	.	.	4ee	-sa,
4	.	.	2r	.	.	.	2r	.	.	.	2r	.
4	1r	.	.	.	1r	.	.	.	1r	.	.	.
2	.	.	2d	for-	.	.	2fnXi	for-	.	.	2dd	for-
4	.	.	4G	-se,	.	.	4d	-se,	.	.	4b	-se,
4	1r	.	4G	Per-	1r	.	4d	Per-	1r	.	4b	Per-
2	.	.	2G	-ché	.	.	2d	-ché	.	.	2b	-ché
4	.	.	4G	po-	.	.	4d	po-	.	.	4b	po-
4	1r	.	4G	-mi	1r	.	4d	-mi	1r	.	4b	-mi
4	.	.	4G	più	.	.	4d	più	.	.	4b	più
2	.	.	2G	va-	.	.	2d	va-	.	.	2b	va-
=34-	=34-	=34-	=34-	=34-	=34-	=34-	=34-	=34-	=34-	=34-	=34-	=34-
4	1r	.	4d	-ghi hai	1r	.	4f	-ghi hai	1r	.	4a	-ghi hai
4	.	.	4c	nel	.	.	4g	nel	.	.	4cci	nel
4	.	.	4A	bel	.	.	4a	bel	.	.	4cc	bel
4	.	.	2e	se-	.	.	2g#X	se-	.	.	2b	se-
4	2.r	.	.	.	2.r	.	.	.	2.r	.	.	.
2	.	.	2A	-no.	.	.	2a	-no.	.	.	2a	-no.
4	1c	Ohi-	4r	.	1g	Ohi-	4r	.	1ee	Ohi-	4r	.
2.	.	.	1r	.	.	.	1r	.	.	.	1r	.
4	4A	-mè,	.	.	4f	-mè,	.	.	4cc#X	-mè,	.	.
4	4A	quan-	1r	.	4e	quan-	1r	.	4cc#i	quan-	1r	.
4	4A	-d'io	.	.	4e	-d'io	.	.	4cc#i	-d'io	.	.
4	4A	t'of-	.	.	4e	t'of-	.	.	4cc#i	t'of-	.	.
4	4.A	-fri-	.	.	4.e	-fri-	.	.	4.cc#i	-fri-	.	.
8	.	.	1r	.	.	.	1r	.	.	.	1r	.
8	8A	-sco il	.	.	8e	-sco il	.	.	8cc#i	-sco il	.	.
4	4F	dol-	.	.	4d	dol-	.	.	4a	dol-	.	.
4	4G	-ce	.	.	4B	-ce	.	.	4b	-ce	.	.
4	2A	me-	.	.	2e	me-	.	.	2cc#X	me-	.	.
4	.	.	1r	.	.	.	1r	.	.	.	1r	.
2	2A	-le,	.	.	2e	-le,	.	.	2cc#i	-le,	.	.
4	4r	.	.	.	4r	.	.	.	4r	.	.	.
=35-	=35-	=35-	=35-	=35-	=35-	=35-	=35-	=35-	=35-	=35-	=35-	=35-
4	4A	Tu	1r	.	4c	Tu	1r	.	4ee	Tu	1r	.
4	4B	lo	.	.	4g	lo	.	.	4dd	lo	.	.
4	4c	di-	.	.	4g	di-	.	.	4ee	di-	.	.
4	2d	-sprez-	.	.	2a	-sprez-	.	.	2ff	-sprez-	.	.
4	.	.	1r	.	.	.	1r	.	.	.	1r	.
4	4c	-zi,	.	.	4g	-zi,	.	.	4ee	-zi,	.	.
2	2c	di-	.	.	2g	di-	.	.	2ee	di-	.	.
4	4c	-spet-	1r	.	4g	-spet-	1r	.	4ee	-spet-	1r	.
4	4A	-to-	.	.	4f#X	-to-	.	.	4cc#X	-to-	.	.
4	4c	-sa,	.	.	4g	-sa,	.	.	4ee	-sa,	.	.
4	2r	.	.	.	2r	.	.	.	2r	.	.	.
4	.	.	1r	.	.	.	1r	.	.	.	1r	.
2	2d	for-	.	.	2fnXi	for-	.	.	2dd	for-	.	.
4	4G	-se	.	.	4d	-se	.	.	4b	-se	.	.
4	4G	Per-	1r	.	4d	Per-	1r	.	4b	Per-	1r	.
2	2G	-ché	.	.	2d	-ché	.	.	2b	-ché	.	.
4	4G	mel	.	.	4d	mel	.	.	4b	mel	.	.
=36-	=36-	=36-	=36-	=36-	=36-	=36-	=36-	=36-	=36-	=36-	=36-	=36-
4	4G	via	1r	.	4d	via	1r	.	4b	via	1r	.
4	4G	più	.	.	4d	più	.	.	4b	più	.	.
2	2G	dol-	.	.	2d	dol-	.	.	2b	dol-	.	.
4	4G	-ce hai	1r	.	4d	-ce hai	1r	.	4b	-ce hai	1r	.
4	4F	ne	.	.	4A	ne	.	.	4cci	ne	.	.
4	4D	le	.	.	4f	le	.	.	4dd	le	.	.
4	2A	lab-	.	.	2e	lab-	.	.	2cc#X	lab-	.	.
4	.	.	2.r	.	.	.	2.r	.	.	.	2.r	.
2	2D	-bra.	.	.	2d	-bra.	.	.	2dd	-bra.	.	.
4	4r	.	4r	.	4r	.	4r	.	4r	.	4r	.
4	4F	Ma	4c	Ma	4f	Ma	4a	Ma	4ccnXi	Ma	4ff	Ma
4.	4.F	se	4.c	se	4.f	se	4.a	se	4.cc	se	4.ff	se
8	8F	mia	8c	mia	8f	mia	8a	mia	8cc	mia	8ff	mia
4	4F	po-	4c	po-	4f	po-	4.a	po-	4cc	po-	4ff	po-
8	4F	-ver-	4c	-ver-	4f	-ver-	.	.	4cc	-ver-	4ff	-ver-
8	.	.	.	.	.	.	8a	-ver-	.	.	.	.
4	4.F	-tà	4.c	-tà	4.f	-tà	4a	-tà	4.cc	-tà	4.ff	-tà
8	.	.	.	.	.	.	4a	non	.	.	.	.
8	8F	non	8c	non	8f	non	.	.	8cc	non	8ff	non
4	4.c	può	4c	può	4.g	può	4.gi	può	4.cc	può	4ee	può
8	.	.	4c	do-	.	.	.	.	.	.	4ee	do-
8	8c	do-	.	.	8e	do-	8g	do-	8cc	do-	.	.
2	2c	-nar-	2c	-nar-	2e	-nar-	2g	-nar-	2cc	-nar-	2ee	-nar-
2	2c	-ti	2c	-ti	2e	-ti	2g	-ti	2cc	-ti	2ee	-ti
4	4G	Co-	4r	.	4B	Co-	4g	Co-	4b	Co-	4dd	Co-
8	8G	-sa	2r	.	8d	-sa	8g	-sa	8b	-sa	8dd	-sa
8	8G	ch'in	.	.	8d	ch'in	8g	ch'in	8b	ch'in	8dd	ch'in
4	4G	te	.	.	4d	te	4g	te	4b	te	4dd	te
4	4G	più	1r	.	4d	più	4g	più	4b	più	4dd	più
4	4c	bel-	.	.	4c	bel-	4g	bel-	4cc	bel-	4ee	bel-
4	4G	-la e	.	.	4d	-la e	4g	-la e	4b	-la e	4dd	-la e
4	4c	dol-	.	.	4c	dol-	4g	dol-	4cc	dol-	4ee	dol-
=37-	=37-	=37-	=37-	=37-	=37-	=37-	=37-	=37-	=37-	=37-	=37-	=37-
8	8c	-ce	1r	.	8c	-ce	8g	-ce	8cc	-ce	8ee	-ce
8	8c	non	.	.	8c	non	8g	non	8cc	non	8ee	non
4.	4.G	si-	.	.	4.d	si-	4.g	si-	4.b	si-	4.dd	si-
8	8G	-a,	.	.	8d	-a,	8g	-a,	8b	-a,	8dd	-a,
4	2r	.	.	.	2r	.	4r	.	2r	.	2r	.
4	.	.	1r	.	.	.	1r	.	.	.	.	.
2.	1E	Me	.	.	1e	Me	.	.	1g#X	Me	1b	Me
4	.	.	1r	.	.	.	1r	.	.	.	.	.
2	2F	me-	.	.	2c	me-	.	.	2a	me-	2a	me-
4	1.G	-de-	.	.	1.g	-de-	.	.	1.b	-de-	1.dd	-de-
1	.	.	1r	.	.	.	1r	.	.	.	.	.
4	.	.	4r	.	.	.	4r	.	.	.	.	.
=38-	=38-	=38-	=38-	=38-	=38-	=38-	=38-	=38-	=38-	=38-	=38-	=38-
4	4D	-smo	1r	.	4f#X	-smo	2.r	.	4a	-smo	4dd	-smo
4	4D	ti	.	.	4f#X	ti	.	.	4a	ti	4dd	ti
4	2D	do-	.	.	2f#i	do-	.	.	2a	do-	2a	do-
4	.	.	.	.	.	.	2.r	.	.	.	.	.
2	2D	-no.	2r	.	2f#i	-no.	.	.	2a	-no.	2a	-no.
4	2.r	.	4r	.	4r	.	4r	.	2.r	.	4r	.
4	.	.	4d	Or	1r	.	4a	Or	.	.	4dd	Or
4	.	.	4d	per-	.	.	4a	per-	.	.	4ff	per-
4	2.r	.	4d	-ché i-	.	.	4a	-ché i-	2.r	.	4ff	-ché i-
4	.	.	4d	-ni-	.	.	4a	-ni-	.	.	4ff	-ni-
4	.	.	4c	-qua,	1r	.	4a	-qua,	.	.	4ee	-qua,
2.	2.r	.	2.d	Scher-	.	.	2.a	Scher-	2.r	.	2.ff	Scher-
=39-	=39-	=39-	=39-	=39-	=39-	=39-	=39-	=39-	=39-	=39-	=39-	=39-
4	1r	.	4c	-ni e ab-	1r	.	4a	-ni e ab-	1r	.	4ee	-ni e ab-
4	.	.	4d	-bor-	.	.	4a	-bor-	.	.	4ff	-bor-
4	.	.	4d	-ri il	.	.	4a	-ri il	.	.	4ff	-ri il
4	.	.	2B	do-	.	.	2g	do-	.	.	2dd	do-
4	1r	.	.	.	1r	.	.	.	1r	.	.	.
2	.	.	2d	-no?	.	.	2a	-no?	.	.	2ff	-no?
4	.	.	4r	.	.	.	4r	.	.	.	4r	.
4	1r	.	4c	Non	1r	.	4e	Non	1r	.	4ee	Non
4	.	.	4c	so-	.	.	4g	so-	.	.	4ee	so-
4	.	.	4c	-no io	.	.	4g	-no io	.	.	4ee	-no io
4	.	.	4c	brut-	.	.	4g	brut-	.	.	4ee	brut-
4	1r	.	4B	-to,	1r	.	4d	-to,	1r	.	4dd	-to,
2	.	.	2c	no,	.	.	2g	no,	.	.	2ee	no,
4	.	.	4r	.	.	.	4r	.	.	.	4r	.
4	1r	.	4d	né	1r	.	4f	né	1r	.	4dd	né
4	.	.	4A	tu	.	.	4e	tu	.	.	4cc	tu
4	.	.	4A	mi	.	.	4e	mi	.	.	4cc	mi
4	.	.	2A	sprez-	.	.	2e	sprez-	.	.	2cc	sprez-
4	1r	.	.	.	1r	.	.	.	1r	.	.	.
4	.	.	4A	-zi	.	.	4e	-zi	.	.	4cc	-zi
4	.	.	4A	Per-	.	.	4e	Per-	.	.	4cc	Per-
4	.	.	4A	-ché	.	.	4e	-ché	.	.	4cc	-ché
=40-	=40-	=40-	=40-	=40-	=40-	=40-	=40-	=40-	=40-	=40-	=40-	=40-
4	1r	.	4Ai	si	1r	.	4e	si	1r	.	4cc	si
4	.	.	4F	fat-	.	.	4d	fat-	.	.	4a	fat-
4	.	.	4G	-to io	.	.	4B	-to io	.	.	4b	-to io
4	.	.	2A	si-	.	.	2e	si-	.	.	2cc	si-
4	1r	.	.	.	1r	.	.	.	1r	.	.	.
2	.	.	2A	-a,	.	.	2e	-a,	.	.	2cc	-a,
4	.	.	4r	.	.	.	4r	.	.	.	4r	.
4	1r	.	4c	ma	1r	.	4e	ma	1r	.	4cc	ma
4	.	.	4c	so-	.	.	4g	so-	.	.	4ee	so-
4	.	.	4c	-la-	.	.	4g	-la-	.	.	4ee	-la-
4	.	.	2c	-men-	.	.	2g	-men-	.	.	2ee	-men-
4	1r	.	.	.	1r	.	.	.	1r	.	.	.
4	.	.	4c	-te	.	.	4g	-te	.	.	4ee	-te
4	.	.	4A	Per-	.	.	4a	Per-	.	.	4ee	Per-
4	.	.	4d	-ché	.	.	4a	-ché	.	.	4ff	-ché
=41-	=41-	=41-	=41-	=41-	=41-	=41-	=41-	=41-	=41-	=41-	=41-	=41-
4.	1r	.	4.d	po-	1r	.	4.a	po-	1r	.	4.ff	po-
8	.	.	8d	-ve-	.	.	8a	-ve-	.	.	8ff	-ve-
4	.	.	4d	-ro	.	.	4a	-ro	.	.	4ff	-ro
4	.	.	2e	so-	.	.	2g#X	so-	.	.	2ee	so-
4	2.r	.	.	.	2.r	.	.	.	2.r	.	.	.
2	.	.	2d	-no:	.	.	2a	-no:	.	.	2ff	-no:
2.	2.c	Ahi,	2.c	Ahi,	2.e	Ahi,	2.gnXi	Ahi,	2.ee	Ahi,	2.gg	Ahi,
8	8F	ché	8c	ché	8fi	ché	8a	ché	8cc	ché	8ff	ché
8	8F	le	8c	le	8f	le	8a	le	8cc	le	8ff	le
2	2F	vil-	2c	vil-	2f	vil-	2a	vil-	2cc	vil-	2ff	vil-
2	2F	-le	2c	-le	2f	-le	2a	-le	2cc	-le	2ff	-le
4	4r	.	4r	.	4r	.	4r	.	4r	.	4r	.
=42-	=42-	=42-	=42-	=42-	=42-	=42-	=42-	=42-	=42-	=42-	=42-	=42-
4	4F	Se-	4c	Se-	4f	Se-	4a	Se-	4cc	Se-	4ff	Se-
4	4F	-guon	4c	-guon	4f	-guon	4a	-guon	4cc	-guon	4ff	-guon
4	4F	l'es-	4c	l'es-	4f	l'es-	4a	l'es-	4cc	l'es-	4ff	l'es-
2	2F	-sem-	2c	-sem-	2f	-sem-	2a	-sem-	2cc	-sem-	2ff	-sem-
2	2C	-pio	2c	-pio	2g	-pio	2g	-pio	2cc	-pio	2ee	-pio
8	8G	de	8d	de	8d	de	8g	de	8b	de	8dd	de
8	8G	le	8B	le	8d	le	8g	le	8b	le	8dd	le
=43-	=43-	=43-	=43-	=43-	=43-	=43-	=43-	=43-	=43-	=43-	=43-	=43-
2	2G	gran	2d	gran	2d	gran	2g	gran	2b	gran	2dd	gran
4	4G	cit-	4G	cit-	4d	cit-	4g	cit-	4b	cit-	4dd	cit-
2	2D	-ta-	2A	-ta-	2d	-ta-	2f#X	-ta-	2a	-ta-	2dd	-ta-
2	2G	-di;	2G	-di;	2d	-di;	2g	-di;	2b	-di;	2dd	-di;
4	4r	.	4r	.	4r	.	4r	.	4r	.	4r	.
=44-	=44-	=44-	=44-	=44-	=44-	=44-	=44-	=44-	=44-	=44-	=44-	=44-
4	4B-X	E	4d	E	4d	E	4fi	E	4dd	E	4ff	E
4	4B-i	ve-	4d	ve-	4f	ve-	4b-X	ve-	4dd	ve-	4ff	ve-
4	4B-i	-ra-	4d	-ra-	4f	-ra-	4b-X	-ra-	4dd	-ra-	4ff	-ra-
4.	4.B-i	-men-	4.d	-men-	4.f	-men-	4.b-X	-men-	4.dd	-men-	4.ff	-men-
8	8F	-te il	8f	-te il	8f	-te il	8a	-te il	8cc	-te il	8ff	-te il
4.	4.B-i	se-	4.d	se-	4.f	se-	4.b-X	se-	4.dd	se-	4.ff	se-
8	8B-i	-col	8d	-col	8f	-col	8b-X	-col	8dd	-col	8ff	-col
4	4.B-i	d'o-	4.d	d'o-	4f	d'o-	4.b-X	d'o-	4.dd	d'o-	4.ff	d'o-
8	.	.	.	.	4f	-ro è	.	.	.	.	.	.
8	8F	-ro è	8f	-ro è	.	.	8a	-ro è	8cc	-ro è	8ff	-ro è
4.	4.B-i	que-	4.d	que-	4.f	que-	4.b-X	que-	4.dd	que-	4.ff	que-
8	8B-i	-sto	8d	-sto	8f	-sto	8b-X	-sto	8dd	-sto	8ff	-sto
2	2r	.	2r	.	2r	.	2r	.	2r	.	2r	.
1	1c	Poi-	1c	Poi-	1e	Poi-	1g	Poi-	1cc	Poi-	1ee	Poi-
4	4G	-ché	4B	-ché	4d	-ché	4bnXi	-ché	4dd	-ché	4gg	-ché
4	4G	sol	4d	sol	4g	sol	4b	sol	4dd	sol	4gg	sol
4	4G	vin-	4d	vin-	4g	vin-	4b	vin-	4dd	vin-	4gg	vin-
=45-	=45-	=45-	=45-	=45-	=45-	=45-	=45-	=45-	=45-	=45-	=45-	=45-
4	4G	-ce	4d	-ce	4g	-ce	4b	-ce	4dd	-ce	4gg	-ce
2.	2.G	l'o-	2.d	l'o-	2.g	l'o-	2.b	l'o-	2.dd	l'o-	2.gg	l'o-
4	4G	-ro e	4d	-ro e	4g	-ro e	4b	-ro e	4dd	-ro e	4gg	-ro e
2	2D	re-	2d	re-	2f	re-	2a	re-	2dd	re-	2aa	re-
2	2D	-gna	2A	-gna	2d	-gna	2a	-gna	2dd	-gna	2ff	-gna
1	1A	l'o-	1A	l'o-	1e	l'o-	1a	l'o-	1cc#X	l'o-	1ee	l'o-
2	2D	-ro,	2A	-ro,	2f	-ro,	2a	-ro,	1dd	-ro,	2dd	-ro,
4	2r	.	4r	.	2r	.	4r	.	.	.	2r	.
4	.	.	1r	.	.	.	1r	.	.	.	.	.
4	2d	O	.	.	2a	O	.	.	2ff	O	4r	.
4	.	.	.	.	.	.	.	.	.	.	2r	.
4	4c	chiun-	.	.	4e	chiun-	.	.	4ee	chiun-	.	.
=46-	=46-	=46-	=46-	=46-	=46-	=46-	=46-	=46-	=46-	=46-	=46-	=46-
8	8c	-que	1r	.	8g	-que	1r	.	8ee	-que	1r	.
8	8c	tu	.	.	8g	tu	.	.	8ee	tu	.	.
4	4c	fo-	.	.	4g	fo-	.	.	4ee	fo-	.	.
4	4c	-sti,	.	.	4g	-sti,	.	.	4ee	-sti,	.	.
4	4A	che in-	.	.	4f	che in-	.	.	4cci	che in-	.	.
4	4Bi	-se-	1r	.	4d	-se-	1r	.	4dd	-se-	1r	.
4	4c	-gna-	.	.	4g	-gna-	.	.	4ee	-gna-	.	.
4	4c	-sti	.	.	4g	-sti	.	.	4ee	-sti	.	.
4	2c	pri-	.	.	2g	pri-	.	.	2ee	pri-	.	.
4	.	.	1r	.	.	.	1r	.	.	.	1r	.
2	2A	-mo a	.	.	2a	-mo a	.	.	2cc	-mo a	.	.
4	2c	ven-	.	.	2g	ven-	.	.	2ee	ven-	.	.
4	.	.	1r	.	.	.	1r	.	.	.	1r	.
4	4c	-der	.	.	4g	-der	.	.	4ee	-der	.	.
4	4d	l'a-	.	.	4f	l'a-	.	.	4ff	l'a-	.	.
4	4A	-mor,	.	.	4a	-mor,	.	.	4ee	-mor,	.	.
=47-	=47-	=47-	=47-	=47-	=47-	=47-	=47-	=47-	=47-	=47-	=47-	=47-
4	4B-X	sia	1r	.	4f	sia	1r	.	4dd	sia	1r	.
4	4B-i	ma-	.	.	4f	ma-	.	.	4dd	ma-	.	.
4	4B-i	-le-	.	.	4d	-le-	.	.	4dd	-le-	.	.
4	2A	-det-	.	.	2e	-det-	.	.	2cc#X	-det-	.	.
4	.	.	2.r	.	.	.	2.r	.	.	.	2.r	.
2	2D	-to.	.	.	2d	-to.	.	.	2dd	-to.	.	.
4	4r	.	2d	Tu	4r	.	2f	Tu	4r	.	2dd	Tu
4	1r	.	.	.	1r	.	.	.	1r	.	.	.
4.	.	.	4.G	pri-	.	.	4.d	pri-	.	.	4.b	pri-
8	.	.	8G	-ma	.	.	8d	-ma	.	.	8b	-ma
4	.	.	4G	sver-	.	.	4d	sver-	.	.	4b	sver-
4	1r	.	4G	-go-	1r	.	4d	-go-	1r	.	4b	-go-
2	.	.	2G	-gna-	.	.	2d	-gna-	.	.	2b	-gna-
4	.	.	4G	-sti	.	.	4d	-sti	.	.	4b	-sti
4	1r	.	4c	La	1r	.	4e	La	1r	.	4cc	La
4	.	.	4c	no-	.	.	4g	no-	.	.	4ee	no-
4	.	.	4c	-bil-	.	.	4g	-bil-	.	.	4ee	-bil-
4	.	.	4B-X	-tà	.	.	4g	-tà	.	.	4dd	-tà
=48-	=48-	=48-	=48-	=48-	=48-	=48-	=48-	=48-	=48-	=48-	=48-	=48-
4	1r	.	4G	d'a-	1r	.	4g	d'a-	1r	.	4dd	d'a-
2	.	.	2A	-mo-	.	.	2e	-mo-	.	.	2cc	-mo-
4	.	.	2G	-re.	.	.	2g	-re.	.	.	2b	-re.
4	4r	.	.	.	4r	.	.	.	4r	.	.	.
4	2d	Tu	4r	.	2f	Tu	4r	.	2dd	Tu	4r	.
4	.	.	2r	.	.	.	2r	.	.	.	2r	.
4	4G	le	.	.	4d	le	.	.	4b	le	.	.
4	4G	sue	1r	.	4e	sue	1r	.	4b	sue	1r	.
4.	4.A	lie-	.	.	4.e	lie-	.	.	4.cc#X	lie-	.	.
8	8A	-te	.	.	8f	-te	.	.	8cc#i	-te	.	.
4	4d	Dol-	.	.	4f	Dol-	.	.	4dd	Dol-	.	.
2	2c	-cez-	1r	.	2g	-cez-	1r	.	2ee	-cez-	1r	.
4	4c	-zi i-	.	.	4g	-zi i-	.	.	4ee	-zi i-	.	.
4	4B-X	-na-	.	.	4g	-na-	.	.	4dd	-na-	.	.
4	4G	-ma-	1r	.	4g	-ma-	1r	.	4dd	-ma-	1r	.
2	2A	-ri-	.	.	2e	-ri-	.	.	2ccnXi	-ri-	.	.
4	2G	-sti.	.	.	2g	-sti.	.	.	2b	-sti.	.	.
4	.	.	4r	.	.	.	4r	.	.	.	4r	.
4	4r	.	4r	.	4r	.	4r	.	4r	.	4r	.
4	2r	.	4c	A-	2r	.	4g	A-	2r	.	4ee	A-
4	.	.	4c	-mor	.	.	4g	-mor	.	.	4ee	-mor
=49-	=49-	=49-	=49-	=49-	=49-	=49-	=49-	=49-	=49-	=49-	=49-	=49-
4	1r	.	4A	ve-	1r	.	4a	ve-	1r	.	4cc	ve-
2	.	.	2c	-na-	.	.	2g	-na-	.	.	2ee	-na-
4	.	.	4c	-le,	.	.	4g	-le,	.	.	4ee	-le,
4	1r	.	4c	A-	1r	.	4g	A-	1r	.	4ee	A-
4	.	.	4c	-mor	.	.	4g	-mor	.	.	4ee	-mor
4	.	.	4c	ser-	.	.	4g	ser-	.	.	4ee	ser-
4	.	.	4A	-vo	.	.	4a	-vo	.	.	4cc	-vo
4	1r	.	4Bi	de	1r	.	4g	de	1r	.	4dd	de
4	.	.	4c	l'o-	.	.	4g	l'o-	.	.	4ee	l'o-
4	.	.	4c	-ro è'l	.	.	4a	-ro è'l	.	.	4ee	-ro è'l
4	.	.	4d	mag-	.	.	4a	mag-	.	.	4ff	mag-
4	1r	.	4A	-gior	1r	.	4a	-gior	1r	.	4ff	-gior
2	.	.	2c	mo-	.	.	2g	mo-	.	.	2ee	mo-
4	.	.	2c	-stro,	.	.	2g	-stro,	.	.	2ee	-stro,
4	4r	.	.	.	4r	.	.	.	4r	.	.	.
4	4r	.	4r	.	4r	.	4r	.	4r	.	4r	.
4	4c	Ed	2r	.	4g	Ed	2r	.	4ee	Ed	2r	.
4	4c	il	.	.	4g	il	.	.	4ee	il	.	.
=50-	=50-	=50-	=50-	=50-	=50-	=50-	=50-	=50-	=50-	=50-	=50-	=50-
4	4c	più a-	1r	.	4g	più a-	4r	.	4ee	più a-	1r	.
4	4A	-bo-	.	.	4a	-bo-	1r	.	4cc	-bo-	.	.
4	4B	-mi-	.	.	4g	-mi-	.	.	4dd	-mi-	.	.
4	4c	-na-	.	.	4g	-na-	.	.	4ee	-na-	.	.
4	4c	-bi-	2r	.	4a	-bi-	.	.	4ee	-bi-	4r	.
4	4d	-le e il	.	.	4a	-le e il	1r	.	4ff	-le e il	4r	.
4	4A	più	2.r	.	4a	più	.	.	4ff	più	2.r	.
2	2c	soz-	.	.	2g	soz-	.	.	2ee	soz-	.	.
2	2c	-zo	2r	.	2g	-zo	2r	.	2ee	-zo	2r	.
4.	4.F	Che	4.c	Che	4.f	Che	4.a	Che	4.cc	Che	4.ff	Che
8	8F	pro-	8c	pro-	8f	pro-	8a	pro-	8cc	pro-	8ff	pro-
2	2F	-du-	2c	-du-	2f	-du-	2a	-du-	2cc	-du-	2ff	-du-
4	4F	-ca	4c	-ca	4f	-ca	4a	-ca	4cc	-ca	4ff	-ca
4	4F	la	4c	la	4f	la	4a	la	4cc	la	4ff	la
4	4F	ter-	4c	ter-	4f	ter-	4a	ter-	4cc	ter-	4ff	ter-
4	4C	-ra o'l	4c	-ra o'l	4e	-ra o'l	4g	-ra o'l	4b	-ra o'l	4gg	-ra o'l
4	4G	mar	4B	mar	4d	mar	4g	mar	4dd	mar	4gg	mar
4	4D	fra	4A	fra	4d	fra	4a	fra	4dd	fra	4ff	fra
=51-	=51-	=51-	=51-	=51-	=51-	=51-	=51-	=51-	=51-	=51-	=51-	=51-
2	2A	l'on-	2A	l'on-	2e	l'on-	2a	l'on-	2cc#X	l'on-	2ee	l'on-
2	2D	-de.	2A	-de.	2f	-de.	2a	-de.	2dd	-de.	2dd	-de.
4	1r	.	4A	Ma	1r	.	4a	Ma	1r	.	4cc	Ma
4	.	.	4d	per-	.	.	4f	per-	.	.	4dd	per-
4	.	.	4c	-ché in	.	.	4g	-ché in	.	.	4ee	-ché in
8	.	.	8c	van	.	.	8g	van	.	.	8ee	van
8	.	.	8c	mi	.	.	8g	mi	.	.	8ee	mi
4	1r	.	4A	la-	1r	.	4f#X	la-	1r	.	4cc#X	la-
4	.	.	4c	-gno?	.	.	4g	-gno?	.	.	4ee	-gno?
4	.	.	4r	.	.	.	4r	.	.	.	4r	.
4	.	.	4.c	U-	.	.	4.g	U-	.	.	4.ee	U-
8	1r	.	.	.	1r	.	.	.	1r	.	.	.
8	.	.	8c	-sa	.	.	8g	-sa	.	.	8ee	-sa
4	.	.	4G	cia-	.	.	4g	cia-	.	.	4dd	cia-
4	.	.	4c	-scun	.	.	4g	-scun	.	.	4ee	-scun
4	.	.	4c	Quel-	.	.	4g	Quel-	.	.	4ee	Quel-
2	1r	.	2c	-l'ar-	1r	.	2g	-l'ar-	1r	.	2ee	-l'ar-
2	.	.	2c	-mi	.	.	2g	-mi	.	.	2ee	-mi
=52-	=52-	=52-	=52-	=52-	=52-	=52-	=52-	=52-	=52-	=52-	=52-	=52-
4	1r	.	4A	che	1r	.	4a	che	1r	.	4ee	che
4	.	.	4d	gli ha	.	.	4fi	gli ha	.	.	4ff	gli ha
4.	.	.	4.c	da-	.	.	4.g	da-	.	.	4.ee	da-
8	.	.	8c	-te	.	.	8g	-te	.	.	8ee	-te
4	1r	.	4c	la	1r	.	4g	la	1r	.	4ee	la
4	.	.	4d	na-	.	.	4f	na-	.	.	4dd	na-
2	.	.	2A	-tu-	.	.	2e	-tu-	.	.	2cc#X	-tu-
4	1r	.	4A	-ra	1r	.	4a	-ra	1r	.	4cc#i	-ra
4	.	.	4c	per	.	.	4g	per	.	.	4ee	per
4	.	.	4B	sua	.	.	4g	sua	.	.	4dd	sua
4	.	.	4c	sa-	.	.	4a	sa-	.	.	4ee	sa-
2	1r	.	2d	-lu-	1r	.	2.a	-lu-	1r	.	2ff	-lu-
4	.	.	2c	-te:	.	.	.	.	.	.	2ee	-te:
4	.	.	.	.	.	.	4g	-te:	.	.	.	.
2	2c	il	1r	.	2g	il	1r	.	2ee	il	1r	.
4	4c	cer-	.	.	4g	cer-	.	.	4ee	cer-	.	.
4	4c	-vo a-	.	.	4g	-vo a-	.	.	4ee	-vo a-	.	.
=53-	=53-	=53-	=53-	=53-	=53-	=53-	=53-	=53-	=53-	=53-	=53-	=53-
4	4A	-do-	1r	.	4a	-do-	1r	.	4cci	-do-	1r	.
4	4c#X	-pra il	.	.	4a	-pra il	.	.	4ee	-pra il	.	.
2	2d	cor-	.	.	2.a	cor-	.	.	2ff	cor-	.	.
4	2cnXi	-so,	2r	.	.	.	2r	.	2ee	-so,	2r	.
4	.	.	.	.	4g	-so,	.	.	.	.	.	.
4	2r	.	4c	Il	2r	.	4g	Il	2r	.	4ee	Il
4	.	.	4c	le-	.	.	4g	le-	.	.	4ee	le-
4	1r	.	4A	-on	1r	.	4f#X	-on	1r	.	4cci	-on
4	.	.	4c	gli ar-	.	.	4a	gli ar-	.	.	4ee	gli ar-
2	.	.	2d	-ti-	.	.	2.a	-ti-	.	.	2ff	-ti-
4	2r	.	2c	-gli,	2r	.	.	.	2r	.	2ee	-gli,
4	.	.	.	.	.	.	4g	-gli,	.	.	.	.
2	2c	ed	2r	.	2g	ed	2r	.	2ee	ed	2r	.
4	4c	il	1r	.	4g	il	1r	.	4ee	il	1r	.
4	4c	ba-	.	.	4g	ba-	.	.	4ee	ba-	.	.
4	4c	-vo-	.	.	4g	-vo-	.	.	4ee	-vo-	.	.
8	8c	-so	.	.	8g	-so	.	.	8ee	-so	.	.
8	8c	Cin-	.	.	8g	Cin-	.	.	8ee	Cin-	.	.
=54-	=54-	=54-	=54-	=54-	=54-	=54-	=54-	=54-	=54-	=54-	=54-	=54-
4	4A	-ghia-	1r	.	4f	-ghia-	1r	.	4cc	-ghia-	1r	.
4	4c	-le il	.	.	4a	-le il	.	.	4ee	-le il	.	.
2	2d	den-	.	.	2.a	den-	.	.	2ff	den-	.	.
4	2c	.	2r	.	.	.	2r	.	2ee	.	2r	.
4	.	.	.	.	4g	.	.	.	.	.	.	.
1	1d	-te; e	1d	e	1d	-te; e	1a	e	1ff	-te; e	1aa	e
4	4G	son	4d	son	4g	son	4b	son	4dd	son	4gg	son
4	4G	po-	4d	po-	4g	po-	4b	po-	4dd	po-	4gg	po-
4.	4.G	-ten-	4.d	-ten-	4.g	-ten-	4.b	-ten-	4.dd	-ten-	4.gg	-ten-
8	8G	-za ed	8d	-za ed	8g	-za ed	8b	-za ed	8dd	-za ed	8gg	-za ed
2	2c	ar-	2c	ar-	2g	ar-	2cc	ar-	2ee	ar-	2gg	ar-
2	2c	-mi	2c	-mi	2e	-mi	2cc	-mi	2ee	-mi	2gg	-mi
4	4F	De	4c	De	4f	De	4a	De	4cc	De	4ff	De
4	4F	la	4c	la	4f	la	4a	la	4cc	la	4ff	la
=55-	=55-	=55-	=55-	=55-	=55-	=55-	=55-	=55-	=55-	=55-	=55-	=55-
2	2F	don-	2c	don-	2f	don-	2a	don-	2cc	don-	2ff	don-
4	4F	-na	4A	-na	4f	-na	4a	-na	4cc	-na	4ff	-na
4	4B-X	bel-	4d	bel-	4f	bel-	4b-X	bel-	4dd	bel-	4ff	bel-
2	2B-i	-lez-	2d	-lez-	2f	-lez-	2b-i	-lez-	2dd	-lez-	2ff	-lez-
1	1d	-za e	1d	-za e	1a	-za e	1a	-za e	1dd	-za e	1ff	-za e
4	4A	leg-	4e	leg-	4A	leg-	4a	leg-	4cc#X	leg-	4ee	leg-
4	4A	-gia-	4A	-gia-	4e	-gia-	4a	-gia-	4cc#i	-gia-	4ee	-gia-
1	1A	-dri-	1A	-dri-	1e	-dri-	1a	-dri-	1cc#i	-dri-	1ee	-dri-
2	1D	-a.	2A	-a.	1f	-a.	1a	-a.	1dd	-a.	2dd	-a.
2	.	.	2r	.	.	.	.	.	.	.	2r	.
=56-	=56-	=56-	=56-	=56-	=56-	=56-	=56-	=56-	=56-	=56-	=56-	=56-
4	1r	.	4A	Io	1r	.	4e	Io	1r	.	4cc#X	Io
4	.	.	4d	per-	.	.	4f#X	per-	.	.	4dd	per-
2	.	.	2c	-ché	.	.	2g	-ché	.	.	2ee	-ché
8	1r	.	8c	non	1r	.	8g	non	1r	.	8ee	non
8	.	.	8c	per	.	.	8g	per	.	.	8ee	per
8	.	.	8c	mia	.	.	8g	mia	.	.	8ee	mia
8	.	.	8c	sa-	.	.	8g	sa-	.	.	8ee	sa-
4.	.	.	4.c	-lu-	.	.	4.g	-lu-	.	.	4.ee	-lu-
8	.	.	8A	-te a-	.	.	8a	-te a-	.	.	8cc#X	-te a-
2	1r	.	2c	-do-	1r	.	2g	-do-	1r	.	2ee	-do-
8	.	.	8c	-pro	.	.	8g	-pro	.	.	8ee	-pro
8	.	.	8c	La	.	.	8g	La	.	.	8ee	La
8	.	.	8A	vi-	.	.	8a	vi-	.	.	8ccnXi	vi-
8	.	.	8c	-o-	.	.	8g	-o-	.	.	8ee	-o-
4	1r	.	4B	-len-	1r	.	4g	-len-	1r	.	4dd#X	-len-
4	.	.	4c	-za,	.	.	4g	-za,	.	.	4ee	-za,
8	.	.	8A	se	.	.	8e	se	.	.	8cc	se
8	.	.	8A	mi	.	.	8e	mi	.	.	8cc	mi
8	.	.	8A	fé	.	.	8e	fé	.	.	8cc	fé
8	.	.	8A	na-	.	.	8e	na-	.	.	8cc	na-
4	1r	.	4A	-tu-	1r	.	4e	-tu-	1r	.	4cc	-tu-
4	.	.	4A	-ra	.	.	4e	-ra	.	.	4cc	-ra
2	.	.	2r	.	.	.	2r	.	.	.	2r	.
=57-	=57-	=57-	=57-	=57-	=57-	=57-	=57-	=57-	=57-	=57-	=57-	=57-
4.	1r	.	4.c	At-	1r	.	4.g	At-	1r	.	4.ee	At-
8	.	.	8A	-to a	.	.	8fi	-to a	.	.	8cc	-to a
4	.	.	4c	far	.	.	4g	far	.	.	4ee	far
8	.	.	8A	vi-	.	.	8a	vi-	.	.	8cc	vi-
8	.	.	8B	-o-	.	.	8g	-o-	.	.	8ddi	-o-
2	1r	.	2c	-len-	1r	.	2g	-len-	1r	.	2ee	-len-
4	.	.	4c	-za ed	.	.	4g	-za ed	.	.	4ee	-za ed
8	.	.	8A	a	.	.	8f	a	.	.	8cc	a
8	.	.	8c	ra-	.	.	8g	ra-	.	.	8ee	ra-
4	2r	.	4B	-pi-	2r	.	4g	-pi-	2r	.	4dd#X	-pi-
4	.	.	4c	-re?	.	.	4g	-re?	.	.	4ee	-re?
4.	4.c	Sfor-	2r	.	4.g	Sfor-	2r	.	4.ee	Sfor-	2r	.
8	8A	-ze-	.	.	8f	-ze-	.	.	8cci	-ze-	.	.
4	4c	-rò,	1r	.	4g	-rò,	1r	.	4ee	-rò,	1r	.
8	8c	ra-	.	.	8g	ra-	.	.	8ee	ra-	.	.
8	8Bi	-pi-	.	.	8g	-pi-	.	.	8dd	-pi-	.	.
4	4c	-rò	.	.	4g	-rò	.	.	4ee	-rò	.	.
4	4d	quel	.	.	4f	quel	.	.	4ff	quel	.	.
4	4c	che	1r	.	4g	che	1r	.	4ee	che	1r	.
4	4B	co-	.	.	4g	co-	.	.	4dd	co-	.	.
2	2c	-ste-	.	.	2g	-ste-	.	.	2ee	-ste-	.	.
=58-	=58-	=58-	=58-	=58-	=58-	=58-	=58-	=58-	=58-	=58-	=58-	=58-
2	2c	-i	1.r	.	2g	-i	1r	.	2ee	-i	1r	.
4	4r	.	.	.	4r	.	.	.	4r	.	.	.
4	4d	Mi	.	.	4d	Mi	.	.	4ff	Mi	.	.
4	4d	nie-	.	.	4a	nie-	1r	.	4ff	nie-	1r	.
4	4e	-ga, in-	.	.	4g	-ga, in-	.	.	4ee	-ga, in-	.	.
4.	4.c	-gra-	2.r	.	4.g	-gra-	.	.	4.ee	-gra-	.	.
8	8c	-ta, in	.	.	8g	-ta, in	.	.	8ee	-ta, in	.	.
4	4.c	mer-	.	.	4.g	mer-	1r	.	4.ee	mer-	1r	.
8	.	.	2.r	.	.	.	.	.	.	.	.	.
8	8c	-to	.	.	8g	-to	.	.	8ee	-to	.	.
4	4B	de	.	.	4g	de	.	.	4dd	de	.	.
4	4d	l'A-	.	.	4g	l'A-	.	.	4b	l'A-	.	.
2	2d	-mo-	2.r	.	2f#i	-mo-	2.r	.	2a	-mo-	2.r	.
4	2G	-re:	.	.	2g	-re:	.	.	2b	-re:	.	.
4	.	.	4r	.	.	.	4r	.	.	.	4r	.
1	1.A	Pian-	1.e	Pian-	1r	.	1.a	Pian-	1.cc	Pian-	1.ee	Pian-
2	.	.	.	.	2.r	.	.	.	.	.	.	.
4	4E	-ga e	4e	-ga e	.	.	4g	-ga e	4b	-ga e	4ee	-ga e
=59-	=59-	=59-	=59-	=59-	=59-	=59-	=59-	=59-	=59-	=59-	=59-	=59-
4	4c	so-	4e	so-	1r	.	4g	so-	4cc	so-	4gg	so-
2	2c	-spi-	2e	-spi-	.	.	2g	-spi-	2cc	-spi-	2gg	-spi-
4	4r	.	4r	.	.	.	4r	.	4r	.	4r	.
4	4c	-ri	4c	-ri	1r	.	4g	-ri	4cc	-ri	4ee	-ri
2	2.G	pur,	2.d	pur,	.	.	2.g	pur,	2.b	pur,	2ddi	pur,
4	.	.	.	.	.	.	.	.	.	.	4r	.
4	4G	u-	4d	u-	4g	u-	4g	u-	4b	u-	4dd	u-
4	4G	-si o-	4g	-si o-	4g	-si o-	4bi	-si o-	4dd	-si o-	4gg	-si o-
4	4G	-gni	4g	-gni	4b	-gni	4dd	-gni	4dd	-gni	4gg	-gni
=60-	=60-	=60-	=60-	=60-	=60-	=60-	=60-	=60-	=60-	=60-	=60-	=60-
1	1d	sfor-	1f	sfor-	1a	sfor-	1dd	sfor-	1ff	sfor-	1aa	sfor-
2	2d	-zo	2d	-zo	2a	-zo	2a	-zo	2ff	-zo	2aa	-zo
2	1.A	Di	1.e	Di	2r	.	1.cc	Di	1.ee	Di	1.a	Di
1	.	.	.	.	1r	.	.	.	.	.	.	.
2	2E	pie-	2e	pie-	1r	.	2b	pie-	2b	pie-	2g	pie-
2	1A	-tà,	1e	-tà,	.	.	1a	-tà,	1cc#X	-tà,	1a	-tà,
2	.	.	.	.	2r	.	.	.	.	.	.	.
2	2A	di	2r	.	2e	di	2a	di	2cc#i	di	2r	.
=61-	=61-	=61-	=61-	=61-	=61-	=61-	=61-	=61-	=61-	=61-	=61-	=61-
2	2G	bel-	1r	.	2g	bel-	2b	bel-	2dd	bel-	1r	.
2	1c	-lez-	.	.	1g	-lez-	1cc	-lez-	1ee	-lez-	.	.
2	.	.	1r	.	.	.	.	.	.	.	1r	.
2	1c	-za:	.	.	1g	-za:	1cc	-za:	1ee	-za:	.	.
2	.	.	1r	.	.	.	.	.	.	.	1r	.
4	4c	che,	.	.	4g	che,	2r	.	4ee	che,	.	.
4	4c	s'io	.	.	4g	s'io	.	.	4ee	s'io	.	.
4	4c	pos-	1r	.	4g	pos-	1r	.	4ee	pos-	1r	.
4	4c	-so	.	.	4g	-so	.	.	4ee	-so	.	.
4.	4.A	Que-	.	.	4.a	Que-	.	.	4.ee	Que-	.	.
8	8d	-sta	.	.	8a	-sta	.	.	8ff	-sta	.	.
4	4c	ma-	1r	.	4g	ma-	1r	.	4ee	ma-	1r	.
8	8c	-no	.	.	8g	-no	.	.	8ee	-no	.	.
8	8A	rav-	.	.	8fnXi	rav-	.	.	8cci	rav-	.	.
8	8c	-vo-	.	.	8g	-vo-	.	.	8ee	-vo-	.	.
8	8c	-glie-	.	.	8g	-glie-	.	.	8ee	-glie-	.	.
8	8A	-re	.	.	8a	-re	.	.	8cc	-re	.	.
8	8B	nel	.	.	8g	nel	.	.	8dd	nel	.	.
=62-	=62-	=62-	=62-	=62-	=62-	=62-	=62-	=62-	=62-	=62-	=62-	=62-
4	4c	cri-	2r	.	4g	cri-	2r	.	4ee	cri-	2r	.
4	4c	-ne,	.	.	4g	-ne,	.	.	4ee	-ne,	.	.
4	4r	.	4r	.	4r	.	4r	.	4r	.	4r	.
4.	4.c	In-	4.c	In-	4.g	In-	4.cc	In-	4.ee	In-	4.gg	In-
8	8c	-di	8c	-di	8g	-di	8cc	-di	8ee	-di	8gg	-di
4	4F	non	4c	non	4a	non	4cc	non	4ff	non	4ff	non
4	4c	par-	4c	par-	4g	par-	4cc	par-	4ee	par-	4gg	par-
4	4F	-ti-	4c	-ti-	4f	-ti-	4cc	-ti-	4ff	-ti-	4aa	-ti-
2	2c	-rà,	2c	-rà,	2g	-rà,	2cc	-rà,	2ee	-rà,	2gg	-rà,
4	4r	.	4r	.	4r	.	4r	.	4r	.	4r	.
4.	4.c	In-	4.c	In-	4.g	In-	4.cc	In-	4.ee	In-	4.gg	In-
8	8c	-di	8c	-di	8g	-di	8cc	-di	8ee	-di	8gg	-di
4	4G	non	4d	non	4g	non	4b	non	4dd	non	4gg	non
4	4d	par-	4d	par-	4a	par-	4a	par-	4dd	par-	4ff#X	par-
4	4G	-ti-	4d	-ti-	4g	-ti-	4b	-ti-	4dd	-ti-	4gg	-ti-
4.	4.d	-rà	4.d	-rà	4.f#X	-rà	4.a	-rà	4.dd	-rà	4.aa	-rà
8	8d	ch'io	8d	ch'io	8f#i	ch'io	8a	ch'io	8dd	ch'io	8aa	ch'io
4	4G	pria	4d	pria	4g	pria	4b	pria	4dd	pria	4gg	pria
4	4G	non	4d	non	4g	non	4b	non	4dd	non	4gg	non
=63-	=63-	=63-	=63-	=63-	=63-	=63-	=63-	=63-	=63-	=63-	=63-	=63-
2	2c	tin-	2c	tin-	2g	tin-	2cc	tin-	2ee	tin-	2gg	tin-
2	2c	-ga	2c	-ga	2e	-ga	2g	-ga	2cc	-ga	2gg	-ga
4.	4.F	L'ar-	4.c	L'ar-	4.fi	L'ar-	4.a	L'ar-	4.cc	L'ar-	4.ffi	L'ar-
8	8F	-mi	8c	-mi	8f	-mi	8a	-mi	8cc	-mi	8ff	-mi
2	2F	mie	2c	mie	2f	mie	2a	mie	2cc	mie	2ff	mie
4	4F	per	4c	per	4f	per	4a	per	4cc	per	4ff	per
4	4F	ven-	4c	ven-	4f	ven-	4a	ven-	4cc	ven-	4ff	ven-
2	2F	-det-	2c	-det-	2f	-det-	2a	-det-	2cc	-det-	2ff	-det-
4	4C	-ta	4c	-ta	4e	-ta	4cc	-ta	4ee	-ta	4gg	-ta
2	2G	nel	2d	nel	2g	nel	2b	nel	2dd	nel	2gg	nel
4	4G	suo	4d	suo	4g	suo	4b	suo	4dd	suo	4gg	suo
2	2D	san-	2d	san-	2a	san-	2a	san-	2dd	san-	2ff#X	san-
2	2G	-gue,	2d	-gue,	2d	-gue,	2b	-gue,	2dd	-gue,	2gg	-gue,
=64-	=64-	=64-	=64-	=64-	=64-	=64-	=64-	=64-	=64-	=64-	=64-	=64-
4.	4.F	L'ar-	4.A	L'ar-	4.a	L'ar-	4.cc	L'ar-	4.ff	L'ar-	4.aa	L'ar-
8	8F	-mi	8c	-mi	8a	-mi	8cc	-mi	8ff	-mi	8aa	-mi
2	2F	mie	2c	mie	2a	mie	2cc	mie	2ff	mie	2aa	mie
4	4F	per	4c	per	4a	per	4cc	per	4ff	per	4aa	per
4	4F	ven-	4c	ven-	4a	ven-	4cc	ven-	4ff	ven-	4aa	ven-
2	2F	-det-	2c	-det-	2a	-det-	2cc	-det-	2ff	-det-	2aa	-det-
2	2C	-ta	2c	-ta	2e	-ta	2cc	-ta	2ee	-ta	2gg	-ta
1	1G	nel	1d	nel	1g	nel	1b	nel	1dd	nel	1gg	nel
2	2G	suo	2d	suo	2g	suo	2b	suo	2dd	suo	2gg	suo
1	1D	san-	1d	san-	1a	san-	1a	san-	1dd	san-	1ff#X	san-
=65-	=65-	=65-	=65-	=65-	=65-	=65-	=65-	=65-	=65-	=65-	=65-	=65-
00	00Gl	-gue.	00dl	-gue.	00gl	-gue.	00bl	-gue.	00ddl	-gue.	00ggl	-gue.
==-	==-	==-	==-	==-	==-	==-	==-	==-	==-	==-	==-	==-
*-	*-	*-	*-	*-	*-	*-	*-	*-	*-	*-	*-	*-
!!!system-decoration: [*]
!!!RDF**kern: i = editorial accidental
!!!RDF**kern: l = terminal long
!!!ENC: Emiliano Ricciardi
!!!END: 2019/01/01
!!!EED: Coluzzi, Seth
!!!EEV: 2022/02/23
!!!YEC: Copyright 2018 Emiliano Ricciardi, All Rights Reserved
!!!ONB: Translated from MusicXML on 2019/01/21
!!@@BEGIN:	VERSEDATA
!!@CATALOGNUM:	Tam2010724
!!@LAST_MODIFIED: 2020/07/12
!!@ACT:          II
!!@SCENE:        1
!!@VERSE:        724
!!@TITLE:        Picciola è l'ape e fa col picciol morso
!!@MANUSRC:	A-Am, A-Au, A-Br, A-CM, A-F, A-Ub
!!@PRINTSRC:	A-1580D, A-1580M, A-1581B, A-1581B<sub>bis</sub>, A-1581M, A-1581M<sub>bis</sub>, A-1581O, A-1581V, A-1582B, A-1583M, A-1583V, A-1584A, A-1585C, A-1585V, A-1585V<sub>bis</sub>, A-1588B, A-1589M, A-1589V, A-1590Mb, A-1590Mv, A-1591M, A-1591W, A-1592B, A-1596B, A-1596M, A-1599Bf, A-1599Bp, A-1600R, A-1601Bf, A-1601Bp, A-1602B, A-1603Bf, A-1603Bv, A-1603Z, A-1605R, A-1606Z, A-1608D, A-1608DP, A-1609Bf, A-1609Bv, A-1609Z, A-1611D, A-1614GT, A-1617D, A-1618B, A-1619D, A-1619I, A-1620V, A-1622D, A-1623A, A-1624M, A-1624S, A-1624T, A-1625U, A-1628U, A-1632D, A-1634R
!!@@BEGIN:	VERSES
!!@ABOUTIT:	
!!@ABOUTEN:	
!!@EDITOR:	Solerti, Angelo
!!@EDITION_TITLE: Opere minori in versi di Torquato Tasso. Edizione critica sugli autografi e sulle antiche stampe.
!!@EDITION_LOC:	Bologna
!!@EDITION_PUB:	Zanichelli
!!@EDITION_DATE:  1895
!!@EDITION_VOL:	3
!!@EDITION_PAGE:
!!@TRANSLATOR:	Emiliano Ricciardi and Amyrose McCue Gill
!!@VERSE:	
!!	Picciola è l'ape e fa co'l picciol morso
!!	Pur gravi e pur moleste le ferite;
!!	Ma qual cosa è più picciola d'Amore,
!!	Se 'n ogni breve spatio entra, e s'asconde
!!	In ogni breve spatio? hor sotto l'ombra
!!	De le palpebre, or tra' minuti ricci
!!	D'un biondo crine, hor dentro a le pozzette
!!	Che forma un dolce riso in bella guancia;
!!@TVERSE:
!!	Tiny is the bee and it makes with its tiny sting
!!	Too serious and too bothersome its injuries;
!!	But what thing is more tiny than Love,
!!	If into every narrow space it enters, and hides itself
!!	In every narrow space? Now under the shadow
!!	Of the eyelids, now among the delicate curls
!!	Of a blonde mane, now within the dimples
!!	That shape a sweet smile in a beautiful cheek;
!!@@END:		VERSES
!!@NEW_CRIT_ED:   Torquato Tasso, <i>Aminta. "Princeps."</i>, ed. Matteo Navone, vol. 9 of Commissione Nazionale per l'Edizione delle opere del Tasso. Studi e Testi (Alessandria: Edizioni dell'Orso, 2014).
!!@ATTRIBUTION_ABOUT:	
!!@DATING:	1573
!!@DEDICATEE:	
!!@COMMENTARY:
!!@@END:		VERSEDATA
!!@@BEGIN: SETTING
!!@CATALOGNUM:	Tam2010724a
!!@ACT:		II
!!@SCENE:		1
!!@VERSE:		724
!!@TITLE:		Picciola è l'ape e fa col picciol morso
!!@COMPOSER:	Balsamino, Simone
!!@PRINCEPSTITLE:	Novellette a sei voci
!!@PRINCEPSLOC:	Venice
!!@NORMLOC:	Venice
!!@NORMPUB:	Amadino
!!@NORMPUBSHORT:	Amadino
!!@PRINCEPSPUB:	Amadino
!!@PRINCEPSYEAR:	1594
!!@PRINCEPSRISM:	B 785
!!@OVOICES:	6
!!@EXTANTVOICES:	6
!!@OMENSURATION:	N/A
!!@OCLEFS:	G2,G2,C2,C3,C3,C4
!!@OTIME:		
!!@OKEYSIG:	-
!!@FINAL:		G
!!@TIMPEDITOR:	Coluzzi, Seth
!!@PARTS:		1 of 1
!!@REPRINTS:	
!!@@END: SETTING
